design-system/icons/check_box--labs-icons.svg

<svg width="22" height="20" viewBox="0 0 22 20" fill="none" xmlns="http://www.w3.org/2000/svg">
<mask id="mask0_306_86" style="mask-type:alpha" maskUnits="userSpaceOnUse" x="0" y="0" width="22" height="22">
<rect x="0.583496" width="21.0833" height="21.0833" fill="#D9D9D9"/>
</mask>
<g mask="url(#mask0_306_86)">
<path d="M9.89535 11.4201L8.16036 9.68516C7.94075 9.46554 7.66988 9.35573 7.34778 9.35573C7.02567 9.35573 6.75481 9.46554 6.53519 9.68516C6.31557 9.90478 6.20576 10.1756 6.20576 10.4977C6.20576 10.8199 6.31557 11.0907 6.53519 11.3103L9.08276 13.8579C9.31702 14.0922 9.58788 14.2093 9.89535 14.2093C10.2028 14.2093 10.4737 14.0922 10.7079 13.8579L15.7591 8.80669C15.9788 8.58707 16.0886 8.31621 16.0886 7.9941C16.0886 7.67199 15.9788 7.40113 15.7591 7.18151C15.5395 6.96189 15.2687 6.85209 14.9466 6.85209C14.6245 6.85209 14.3536 6.96189 14.134 7.18151L9.89535 11.4201ZM4.9759 19.0189C4.33169 19.0189 3.78264 18.792 3.32877 18.3381C2.87489 17.8842 2.64795 17.3352 2.64795 16.691V4.39236C2.64795 3.74815 2.87489 3.1991 3.32877 2.74523C3.78264 2.29135 4.33169 2.06441 4.9759 2.06441H17.2745C17.9187 2.06441 18.4678 2.29135 18.9216 2.74523C19.3755 3.1991 19.6025 3.74815 19.6025 4.39236V16.691C19.6025 17.3352 19.3755 17.8842 18.9216 18.3381C18.4678 18.792 17.9187 19.0189 17.2745 19.0189H4.9759Z" fill="#1C1B1F"/>
</g>
</svg>

<svg xmlns="http://www.w3.org/2000/svg" width="22" height="20" fill="none" viewBox="0 0 22 20"><mask id="a" width="22" height="22" x="0" y="0" maskUnits="userSpaceOnUse" style="mask-type:alpha"><path fill="#d9d9d9" d="M.583 0h21.083v21.083H.583z"/></mask><g mask="url(#a)"><path fill="#1c1b1f" d="M9.895 11.42 8.16 9.685q-.33-.33-.812-.33t-.813.33q-.33.33-.33.813t.33.812l2.548 2.548a1.116 1.116 0 0 0 1.625 0l5.051-5.051q.33-.33.33-.813t-.33-.812-.812-.33-.813.33zm-4.92 7.599a2.24 2.24 0 0 1-1.646-.68 2.24 2.24 0 0 1-.681-1.648V4.392q0-.966.68-1.647a2.24 2.24 0 0 1 1.648-.68h12.299q.966 0 1.647.68.68.681.68 1.647v12.299q0 .966-.68 1.647a2.24 2.24 0 0 1-1.648.68z"/></g></svg>
